X: 10743
T: Dr. Gilbert's
R: reel
M: 4/4
K: Eminor
gf|:eBBA A~B3|dBAc BAGF|EDBD G2 FG|EDBE DBAG|
BE (3EEE EDBD|GE (3EEE EFGA|(3Bcd ed Bdgb|afdf efgf:|
|:e~B3 g~B3|defg afdf|(3ggg bg fgaf|egfd e~B3|
afdf edB^c|dBAF AFDF|EAcA Bdgb|afdf efgf:|

